X: 30084
T: Oíche Nollag
R: jig
M: 6/8
K: Dmajor
|:g|f2 A d2 f|e2 d B2 g|f2 A d2 f|{a}g3 a2 g|
f2 A d2 f|e2 d B2 c|d2 A B2 G|E2 F D2:|
|:f/g/|a2 b a2 f|d3- d2 f|g2 f e2 d|B3 A2 f/g/|
a2 b a2 f|d2 f g2 f|e2 d c2 e|a3- a2:|

